front/public/static/landing/logos/dust/Dust_LogoSquare_Gray.svg

<svg fill="none" height="48" viewBox="0 0 48 48" width="48" xmlns="http://www.w3.org/2000/svg"><g clip-rule="evenodd" fill="#1c222d" fill-rule="evenodd"><path d="m12 24c6.6274 0 12-5.3726 12-12 0 6.6274 5.3726 12 12 12s12-5.3726 12-12c0-6.62742-5.3726-12-12-12s-12 5.37258-12 12c0-6.62742-5.3726-12-12-12-6.62742 0-12 5.37258-12 12 0 6.6274 5.37258 12 12 12zm24 12h-12v12h12zm-24 12c3.3137 0 6-2.6863 6-6s-2.6863-6-6-6h-12v12z" fill-opacity=".7"/><path d="m12 0h-12v24h12c-3.31371 0-6 2.6863-6 6s2.68629 6 6 6h36v-12h-36zm12 0h24v12h-24z"/></g></svg>

<svg width="48" height="48" viewBox="0 0 48 48" fill="none" xmlns="http://www.w3.org/2000/svg">
<path fill-rule="evenodd" clip-rule="evenodd" d="M12 24C18.6274 24 24 18.6274 24 12C24 18.6274 29.3726 24 36 24C42.6274 24 48 18.6274 48 12C48 5.37258 42.6274 0 36 0C29.3726 0 24 5.37258 24 12C24 5.37258 18.6274 0 12 0C5.37258 0 0 5.37258 0 12C0 18.6274 5.37258 24 12 24ZM36 36H24V48H36V36ZM12 48C15.3137 48 18 45.3137 18 42C18 38.6863 15.3137 36 12 36H0V48H12Z" fill="#1C222D" fill-opacity="0.7"/>
<path fill-rule="evenodd" clip-rule="evenodd" d="M12 0H0V24H12C8.68629 24 6 26.6863 6 30C6 33.3137 8.68629 36 12 36H48V24H12V0ZM24 0H48V12H24V0Z" fill="#1C222D"/>
</svg>
